static/assets/images/exchanges/fraxswap.svg

<svg width="259" height="256" viewBox="0 0 259 256" fill="none" xmlns="http://www.w3.org/2000/svg">
<path d="M18.6413 16.3705C10.1681 25.2613 3.1776 32.7409 3.10699 32.882C3.03638 33.0937 10.6623 40.5733 20.0535 49.4642C29.4448 58.4256 37.6356 66.258 38.2005 66.7519L39.2596 67.7398L37.3531 70.9151C20.6184 98.5755 17.1585 131.881 27.6795 162.505C29.6566 168.291 33.0459 175.7 35.9409 180.569C37.3531 182.968 37.9886 184.52 37.8474 184.803C37.7062 185.085 29.1623 194.117 18.8532 204.913C8.54401 215.638 0.141351 224.6 0.000129266 224.741C-0.0704814 224.953 28.8093 252.825 31.5631 255.083L32.6222 256L48.9333 238.994C57.9008 229.61 66.3035 220.789 67.5745 219.449L69.9752 217.05L72.2348 218.461C83.7443 225.799 97.231 230.88 112.13 233.561C119.615 234.902 133.878 235.255 141.857 234.267C157.25 232.503 172.502 227.352 185 219.802L188.248 217.826L191.708 221.213C199.263 228.551 227.508 255.365 227.79 255.506C228.072 255.647 259.071 223.259 259 222.836C258.929 222.624 237.675 202.232 224.683 190.024L220.376 185.932L222.353 182.686C238.946 155.096 242.406 121.649 231.674 90.8137C230.12 86.2977 225.389 76.1367 222.635 71.4796L221.294 69.151L239.441 50.1698C249.397 39.7971 257.517 31.118 257.446 30.9063C257.164 30.2007 225.389 0.211688 224.966 0.211688C224.683 0.211688 216.704 8.32635 207.172 18.3462C197.639 28.2955 189.731 36.4807 189.519 36.5513C189.378 36.6218 188.46 36.1985 187.613 35.5634C185.212 33.9405 179.139 30.624 175.75 29.0717C165.441 24.344 155.838 21.4509 144.681 19.828C138.891 18.9813 121.521 18.8401 116.155 19.6163C103.303 21.4509 92.7825 24.6262 82.0497 29.989C78.9428 31.4708 75.3417 33.4465 73.9295 34.2933L71.3875 35.8457L68.4924 33.0231C66.939 31.4708 59.8779 24.8379 52.8875 18.1345C45.897 11.5017 38.7654 4.72768 37.0707 3.03418L33.9638 0L18.6413 16.3705ZM137.197 62.3771C148.424 63.7177 158.45 67.5281 167.7 74.0198C172.431 77.3363 179.492 84.3925 182.811 89.1202C201.664 115.793 198.063 152.062 174.338 174.289C154.073 193.2 124.769 197.433 100.126 184.873C82.3321 175.771 69.7634 159.118 65.7386 139.149C64.4676 132.798 64.4676 120.944 65.7386 114.664C66.939 108.454 68.563 104.009 71.5993 97.7993C83.7443 73.3848 110.082 59.1312 137.197 62.3771Z" fill="white"/>
</svg>

<svg xmlns="http://www.w3.org/2000/svg" fill="none" viewBox="0 0 259 256"><path fill="#fff" d="M18.642 16.37C10.168 25.261 3.178 32.74 3.107 32.883c-.07.212 7.555 7.691 16.947 16.582 9.391 8.962 17.582 16.794 18.147 17.288l1.06.988-1.907 3.175c-16.735 27.66-20.195 60.966-9.674 91.59 1.977 5.786 5.366 13.195 8.261 18.064 1.413 2.399 2.048 3.951 1.907 4.234s-8.685 9.314-18.995 20.11C8.544 215.638.141 224.6 0 224.741c-.07.212 28.81 28.084 31.563 30.342l1.06.917 16.31-17.006a12334 12334 0 0 0 18.642-19.545l2.401-2.399 2.26 1.411c11.51 7.338 24.996 12.419 39.895 15.1 7.485 1.341 21.748 1.694 29.727.706 15.394-1.764 30.646-6.915 43.144-14.465l3.248-1.976 3.46 3.387c7.556 7.338 35.8 34.152 36.083 34.293.282.141 31.28-32.247 31.21-32.67-.071-.212-21.325-20.604-34.317-32.812l-4.308-4.092 1.977-3.246c16.594-27.59 20.054-61.037 9.321-91.872-1.553-4.516-6.284-14.677-9.038-19.334l-1.342-2.329 18.147-18.981c9.957-10.373 18.077-19.052 18.006-19.264-.282-.705-32.057-30.694-32.481-30.694-.282 0-8.261 8.114-17.794 18.134-9.533 9.95-17.441 18.135-17.653 18.205-.141.07-1.059-.352-1.906-.988-2.401-1.623-8.474-4.939-11.863-6.491-10.309-4.728-19.912-7.621-31.069-9.244-5.79-.847-23.161-.988-28.527-.212-12.851 1.835-23.373 5.01-34.105 10.373-3.107 1.482-6.709 3.457-8.12 4.304l-2.543 1.553-2.895-2.823c-1.553-1.552-8.614-8.185-15.605-14.889-6.99-6.632-14.122-13.406-15.817-15.1L33.964 0zm118.556 46.007c11.227 1.34 21.254 5.151 30.504 11.643 4.731 3.316 11.792 10.373 15.111 15.1 18.853 26.673 15.252 62.942-8.473 85.169-20.266 18.911-49.569 23.144-74.213 10.584-17.794-9.102-30.363-25.755-34.388-45.724-1.27-6.351-1.27-18.205 0-24.485 1.2-6.21 2.825-10.655 5.861-16.865 12.145-24.414 38.483-38.668 65.598-35.422"/></svg>
